dist/svgs/team-tie.svg

<svg xmlns="http://www.w3.org/2000/svg" viewBox="0 0 512 512"><path d="M114 33q-7-10 0-22 8-11 21-11h180q15 0 18 13 8 12 0 23l-45 66q-7 9-18 9h-90q-11 0-18-9zm332 221q5 5 5 13.5t-5 15.5l-36 42q-3 5-9.5 3.5T392 321l-56-156q-4-8 3.5-13t14.5 2zm-88 118q4 5 2.5 11t-6.5 11L241 505q-4 4-8.5 5.5T225 512q-9 0-16-7L96 394q-3-3-4.5-9t.5-13l67-201q2-6 8-10.5t13-4.5h90q7 0 12.5 4.5T290 171z"/></svg>

<?xml version="1.0" encoding="UTF-8" standalone="no"?><svg   xmlns:svg="http://www.w3.org/2000/svg"   xmlns="http://www.w3.org/2000/svg"   version="1.1"   width="512"   height="512"   viewBox="0 0 512 512">  <path     d="M114 33Q107 23 114 11Q122 0 135 0H315Q330 0 333 13Q341 25 333 36L288 102Q281 111 270 111H180Q169 111 162 102zM446 254Q451 259 451 267.5T446 283L410 325Q407 330 400.5 328.5T392 321L336 165Q332 157 339.5 152T354 154zM358 372Q362 377 360.5 383T354 394L241 505Q237 509 232.5 510.5T225 512Q216 512 209 505L96 394Q93 391 91.5 385T92 372L159 171Q161 165 167 160.5T180 156H270Q277 156 282.5 160.5T290 171z"     id="team-tie" /></svg>
